docker/prod/offline-native-image-pipeline-execution/approved-color.spi1d
Version 1
From 0.0 1.0
Length 8
Components 1
{
0.000000
0.105000
0.240000
0.390000
0.555000
0.720000
0.870000
1.000000
}
